brandFactory_export/1.Light/Videojuegos _1Light.svg

<?xml version="1.0" encoding="UTF-8"?>
<svg width="24px" height="24px" viewBox="0 0 24 24" version="1.1" xmlns="http://www.w3.org/2000/svg" xmlns:xlink="http://www.w3.org/1999/xlink">
    <title>1.Light/Videojuegos _1Light</title>
    <g id="Symbols" stroke="none" stroke-width="1" fill="none" fill-rule="evenodd">
        <g id="1.Light/Videojuegos-_1Light" fill="#5CB615" fill-rule="nonzero">
            <path d="M16.7092437,7.61680672 C17.0117647,7.61680672 17.2470588,7.69411765 17.4117647,7.8487395 C17.5831933,8.01008403 17.6705882,8.2487395 17.6705882,8.56134454 C17.6705882,8.87058824 17.5831933,9.1092437 17.4117647,9.27058824 C17.2470588,9.42521008 17.0117647,9.50252101 16.7092437,9.50252101 C16.4067227,9.50252101 16.1714286,9.42521008 16.0067227,9.27058824 C15.8386555,9.1092437 15.7512605,8.87394958 15.7512605,8.56134454 C15.7512605,8.2487395 15.8386555,8.01008403 16.0067227,7.8487395 C16.1714286,7.69411765 16.4067227,7.61680672 16.7092437,7.61680672 L16.7092437,7.61680672 Z M14.7697479,9.49915966 C15.0722689,9.49915966 15.307563,9.57647059 15.4722689,9.73445378 C15.6436975,9.89579832 15.7310924,10.1344538 15.7310924,10.4470588 C15.7310924,10.7563025 15.6436975,10.994958 15.4722689,11.1563025 C15.307563,11.3109244 15.0722689,11.3882353 14.7697479,11.3882353 C14.4672269,11.3882353 14.2319328,11.3109244 14.0672269,11.1563025 C13.8991597,10.994958 13.8084034,10.7596639 13.8084034,10.4470588 C13.8084034,10.1344538 13.8957983,9.89579832 14.0672269,9.73445378 C14.2285714,9.57983193 14.4638655,9.49915966 14.7697479,9.49915966 Z M16.7092437,11.3848739 C17.0117647,11.3848739 17.2470588,11.4621849 17.4117647,11.6168067 C17.5831933,11.7781513 17.6705882,12.0168067 17.6705882,12.3294118 C17.6705882,12.6386555 17.5831933,12.8773109 17.4117647,13.0386555 C17.2470588,13.1932773 17.0117647,13.2705882 16.7092437,13.2705882 C16.4067227,13.2705882 16.1714286,13.1932773 16.0067227,13.0386555 C15.8386555,12.8773109 15.7512605,12.6420168 15.7512605,12.3294118 C15.7512605,12.0201681 15.8386555,11.7781513 16.0067227,11.6168067 C16.1714286,11.4621849 16.4067227,11.3848739 16.7092437,11.3848739 Z M18.6521008,9.49915966 C18.9546218,9.49915966 19.189916,9.57647059 19.3546218,9.73445378 C19.5260504,9.89579832 19.6134454,10.1344538 19.6134454,10.4470588 C19.6134454,10.7563025 19.5260504,10.994958 19.3546218,11.1563025 C19.189916,11.3109244 18.9546218,11.3882353 18.6521008,11.3882353 C18.3462185,11.3882353 18.1142857,11.3109244 17.9495798,11.1563025 C17.7781513,10.994958 17.6941176,10.7596639 17.6941176,10.4470588 C17.6941176,10.1344538 17.7815126,9.89579832 17.9495798,9.73445378 C18.1142857,9.57983193 18.3495798,9.49915966 18.6521008,9.49915966 Z M8.65546218,10.8537815 C8.75966387,10.7529412 8.77647059,10.5210084 8.77647059,10.389916 C8.77647059,10.2621849 8.75966387,10.0268908 8.65546218,9.92605042 C8.57815126,9.85210084 8.41008403,9.81176471 8.18487395,9.81176471 C8.1210084,9.81176471 8.10756303,9.81848739 8.08403361,9.81848739 L8.04705882,9.81848739 C8.03361345,9.81848739 8.02016807,9.81848739 8.02352941,9.81512605 C7.97983193,9.81848739 7.9394958,9.82184874 7.89915966,9.82184874 C7.79159664,9.82184874 7.69411765,9.80168067 7.61344538,9.7512605 C7.48571429,9.67058824 7.39831933,9.52941176 7.3512605,9.33445378 C7.33109244,9.25714286 7.33109244,9.18991597 7.33109244,9.12268908 C7.33109244,9.1092437 7.32773109,9.09579832 7.32773109,9.08571429 C7.33109244,9.07226891 7.33109244,9.06218487 7.33109244,9.05210084 C7.33445378,9.01848739 7.34117647,8.98151261 7.34117647,8.96134454 C7.34117647,8.8302521 7.32436975,8.59495798 7.22016807,8.49411765 C7.14285714,8.42016807 6.97478992,8.37983193 6.74957983,8.37983193 C6.52773109,8.37983193 6.36302521,8.42016807 6.28571429,8.49411765 C6.17815126,8.59495798 6.16470588,8.8302521 6.16470588,8.96134454 C6.16470588,9.03865546 6.17478992,9.09915966 6.18487395,9.16302521 C6.18487395,9.16638655 6.18487395,9.1697479 6.18823529,9.17310924 C6.19159664,9.19663866 6.18487395,9.21344538 6.18823529,9.23697479 C6.20168067,9.40168067 6.17478992,9.54285714 6.09747899,9.65042017 C6.00336134,9.77815126 5.8487395,9.85546218 5.64033613,9.88571429 C5.6302521,9.88907563 5.62016807,9.88907563 5.60672269,9.88907563 C5.57983193,9.88907563 5.55630252,9.88571429 5.52605042,9.88571429 L5.52268908,9.88571429 C5.48907563,9.88571429 5.45546218,9.88907563 5.42521008,9.88907563 C5.40168067,9.88907563 5.38151261,9.88571429 5.35798319,9.88235294 L5.35462185,9.88235294 C5.31764706,9.8789916 5.28403361,9.86890756 5.24033613,9.86890756 C5.01848739,9.86890756 4.85378151,9.9092437 4.77647059,9.98655462 C4.67226891,10.087395 4.65546218,10.3193277 4.65546218,10.4504202 C4.65546218,10.6722689 4.69915966,10.8403361 4.77310924,10.9142857 C4.85042017,10.9848739 5.01848739,11.0285714 5.24033613,11.0285714 C5.3512605,11.0285714 5.3512605,11.0285714 5.43193277,11.0151261 L5.43529412,11.0151261 C5.45210084,11.0151261 5.50588235,11.0084034 5.52268908,11.0084034 L5.52605042,11.0084034 C5.55966387,11.005042 5.59663866,11.005042 5.6302521,11.005042 C5.73781513,11.005042 5.83529412,11.0252101 5.91260504,11.0756303 C6.04033613,11.1563025 6.12773109,11.2941176 6.17478992,11.4890756 C6.19159664,11.5529412 6.18823529,11.6033613 6.19159664,11.6571429 C6.19159664,11.6773109 6.19495798,11.6941176 6.19495798,11.7109244 C6.18823529,11.7478992 6.18487395,11.7815126 6.18151261,11.8151261 C6.17478992,11.8554622 6.16470588,11.902521 6.16470588,11.9361345 C6.16470588,12.1579832 6.20840336,12.3294118 6.28235294,12.4 C6.35966387,12.4705882 6.52773109,12.5109244 6.74621849,12.5109244 C6.96806723,12.5109244 7.1394958,12.4705882 7.21680672,12.3966387 C7.3210084,12.2957983 7.33781513,12.0638655 7.33781513,11.9327731 C7.33781513,11.8991597 7.3210084,11.8487395 7.31764706,11.805042 C7.31428571,11.7815126 7.31092437,11.7579832 7.30756303,11.7310924 C7.30420168,11.7008403 7.30420168,11.6705882 7.30420168,11.6369748 C7.30420168,11.5966387 7.29411765,11.5596639 7.29747899,11.5159664 C7.31764706,11.3176471 7.38823529,11.1630252 7.50588235,11.0689076 C7.60336134,10.9882353 7.73781513,10.9512605 7.89579832,10.9512605 L7.94957983,10.9512605 C7.95966387,10.9512605 7.99327731,10.9546218 8.00336134,10.9546218 L8.00672269,10.9546218 C8.04705882,10.9647059 8.07058824,10.9647059 8.10084034,10.9647059 L8.18823529,10.9647059 C8.40672269,10.9680672 8.57815126,10.9243697 8.65546218,10.8537815 L8.65546218,10.8537815 Z M8.32268908,8.84369748 C8.75294118,8.86386555 9.09243697,8.99495798 9.33781513,9.22689076 C9.62016807,9.49579832 9.76134454,9.88571429 9.76134454,10.389916 C9.76134454,10.897479 9.62016807,11.287395 9.33445378,11.5563025 C9.09579832,11.7815126 8.76638655,11.9092437 8.32605042,11.9327731 C8.32605042,12.4403361 8.18151261,12.8302521 7.89915966,13.0991597 C7.6302521,13.3512605 7.24033613,13.4823529 6.74621849,13.4823529 C6.25210084,13.4823529 5.86890756,13.3546218 5.59663866,13.0991597 C5.33109244,12.8436975 5.18655462,12.4705882 5.17647059,11.9966387 C4.71260504,11.9831933 4.34621849,11.8554622 4.08739496,11.610084 C3.80840336,11.3445378 3.66386555,10.9546218 3.66386555,10.4470588 C3.66386555,9.94285714 3.80840336,9.54957983 4.08739496,9.28403361 C4.34621849,9.03865546 4.71260504,8.90756303 5.17647059,8.89411765 C5.18655462,8.42016807 5.32773109,8.05042017 5.59663866,7.79495798 C5.86890756,7.53613445 6.25210084,7.40504202 6.74621849,7.40504202 C7.24033613,7.40504202 7.6302521,7.53613445 7.89915966,7.79495798 C8.16134454,8.04033613 8.30588235,8.39327731 8.32268908,8.84369748 L8.32268908,8.84369748 Z M22.3731092,17.4689076 C22.497479,17.0588235 22.6655462,16.1647059 22.6722689,15.7747899 C22.7092437,12.9546218 21.2705882,9.63697479 20.4941176,7.85546218 C20.3798319,7.58991597 20.2756303,7.35798319 20.194958,7.15966387 L20.1579832,7.06554622 C20.107563,6.94117647 20.0605042,6.83361345 20.0235294,6.74621849 C20.0033613,6.69915966 19.989916,6.67226891 19.9798319,6.65546218 L19.9697479,6.63529412 L19.9428571,6.58151261 L19.892437,6.4907563 C19.7512605,6.24201681 19.6,6.03697479 19.4319328,5.87563025 C18.8067227,5.27731092 17.8789916,4.97815126 16.6789916,4.97815126 C16.2117647,4.97815126 15.7613445,5.03529412 15.3008403,5.15630252 C15.1563025,5.19663866 14.7495798,5.36134454 14.5378151,5.45546218 C14.4235294,5.51932773 14.107563,5.69747899 13.9932773,5.77478992 C13.3546218,6.20168067 12.6117647,6.4302521 11.8420168,6.4302521 C11.0722689,6.4302521 10.3294118,6.20168067 9.69411765,5.77478992 C9.57647059,5.69747899 9.2605042,5.51596639 9.14621849,5.45210084 C8.9512605,5.36470588 8.53109244,5.19327731 8.38319328,5.15294118 C7.92605042,5.03193277 7.47563025,4.97478992 7.00840336,4.97478992 C5.80504202,4.97478992 4.88067227,5.27731092 4.25546218,5.87226891 C4.08739496,6.0302521 3.93613445,6.23865546 3.77478992,6.52436975 L3.73781513,6.59495798 L3.73445378,6.59831933 L3.70756303,6.65546218 C3.69747899,6.67563025 3.68739496,6.69915966 3.66386555,6.74621849 C3.62016807,6.84369748 3.5697479,6.96470588 3.51260504,7.09915966 L3.48907563,7.15630252 C3.40504202,7.35798319 3.30420168,7.58991597 3.18991597,7.85546218 C2.41680672,9.63697479 0.974789916,12.9546218 1.01176471,15.7781513 C1.01512605,16.1680672 1.18319328,17.0621849 1.30756303,17.4722689 C1.48571429,18.0470588 1.88235294,18.4705882 2.40336134,18.6420168 C2.60168067,18.7058824 2.93109244,18.7697479 3.18655462,18.7865546 C3.45882353,18.7865546 4.03697479,18.6554622 4.30588235,18.5344538 C4.54117647,18.4302521 4.76302521,18.2857143 4.99159664,18.0907563 C5.11932773,17.9798319 5.17647059,17.912605 5.45210084,17.5731092 L5.56638655,17.4352941 C5.64033613,17.3411765 5.71428571,17.2470588 5.78487395,17.1529412 C5.9697479,16.9109244 6.18151261,16.6352941 6.44705882,16.3831933 C7.25378151,15.6168067 8.2789916,15.0554622 9.49915966,14.712605 C10.2554622,14.5008403 11.0420168,14.3932773 11.8352941,14.3932773 C12.6285714,14.3932773 13.4151261,14.5008403 14.1714286,14.712605 C15.394958,15.0554622 16.4201681,15.6168067 17.2235294,16.3831933 C17.4890756,16.6352941 17.697479,16.9109244 17.8857143,17.1563025 C17.9563025,17.2504202 18.0302521,17.3445378 18.1042017,17.4352941 L18.2151261,17.5731092 C18.4907563,17.912605 18.5478992,17.9798319 18.6789916,18.0907563 C18.9680672,18.3361345 19.2168067,18.4638655 19.3815126,18.5344538 C19.6605042,18.6588235 20.3058824,18.7865546 20.5647059,18.7865546 C20.6957983,18.7865546 20.9882353,18.7361345 21.2705882,18.6420168 C21.794958,18.4672269 22.194958,18.0403361 22.3731092,17.4689076 Z M21.1058824,6.78655462 C21.7781513,8.4 23.7042017,12.3428571 23.6571429,15.7882353 C23.6504202,16.2857143 23.4621849,17.2739496 23.3142857,17.7478992 C23.0218487,18.6991597 22.3394958,19.3109244 21.589916,19.5563025 C21.2840336,19.6571429 20.8705882,19.7512605 20.5714286,19.7512605 C20.1714286,19.7512605 19.3848739,19.5932773 18.9815126,19.4117647 C18.7529412,19.307563 18.4168067,19.1361345 18.0403361,18.8168067 C17.8151261,18.6218487 17.7142857,18.4941176 17.3445378,18.0336134 C17.0823529,17.7109244 16.8504202,17.3579832 16.5478992,17.0689076 C15.8521008,16.4033613 14.9647059,15.9294118 13.912605,15.6369748 C13.2403361,15.4521008 12.5411765,15.3546218 11.8453782,15.3546218 C11.1462185,15.3546218 10.4504202,15.4487395 9.77815126,15.6369748 C8.72605042,15.9327731 7.84201681,16.4033613 7.14285714,17.0689076 C6.84033613,17.3579832 6.60840336,17.707563 6.34285714,18.0336134 C5.9697479,18.4907563 5.87226891,18.6218487 5.64705882,18.8168067 C5.27058824,19.1361345 4.9512605,19.307563 4.72268908,19.4117647 C4.34957983,19.5798319 3.6302521,19.7512605 3.20672269,19.7512605 L3.11260504,19.7512605 C2.81680672,19.7243697 2.4,19.6571429 2.09411765,19.5563025 C1.34789916,19.3109244 0.665546218,18.6991597 0.369747899,17.7478992 C0.225210084,17.2739496 0.0369747899,16.2823529 0.0302521008,15.7882353 C-0.0168067227,12.3462185 1.9092437,8.40336134 2.58151261,6.78655462 C2.65210084,6.61512605 2.71260504,6.46722689 2.76302521,6.35294118 C2.81008403,6.24537815 2.8302521,6.21176471 2.84369748,6.18487395 L2.91428571,6.05042017 C3.09579832,5.72773109 3.30420168,5.42857143 3.57310924,5.17647059 C4.38655462,4.4 5.54621849,4.00672269 7.01176471,4.00672269 C7.61344538,4.00672269 8.14789916,4.0907563 8.64537815,4.22184874 C8.93781513,4.29915966 9.58655462,4.58487395 9.6,4.59159664 C9.6,4.59159664 10.097479,4.87058824 10.2521008,4.97815126 C10.7327731,5.30084034 11.287395,5.46218487 11.8420168,5.46218487 C12.3966387,5.46218487 12.9546218,5.30084034 13.4319328,4.97815126 C13.589916,4.87058824 14.087395,4.59159664 14.087395,4.59159664 C14.097479,4.58487395 14.7462185,4.29915966 15.0386555,4.22184874 C15.5361345,4.0907563 16.0705882,4.00672269 16.6722689,4.00672269 C18.1378151,4.00672269 19.2941176,4.4 20.1109244,5.17647059 C20.3731092,5.42857143 20.5848739,5.72773109 20.7663866,6.05042017 L20.8336134,6.18487395 C20.8470588,6.21176471 20.8672269,6.24537815 20.9142857,6.35294118 C20.9747899,6.46722689 21.0352941,6.61848739 21.1058824,6.78655462 Z" id="Videojuegos-_1Light"></path>
        </g>
    </g>
</svg>

<svg width="24" height="24" viewBox="0 0 24 24" xmlns="http://www.w3.org/2000/svg"><path d="M16.71 7.617c.302 0 .537.077.702.232.171.161.259.4.259.712 0 .31-.088.548-.26.71-.164.154-.4.232-.702.232-.302 0-.538-.078-.702-.232-.168-.162-.256-.397-.256-.71 0-.312.088-.55.256-.712.164-.155.4-.232.702-.232zm-1.94 1.882c.302 0 .538.077.702.235.172.162.26.4.26.713 0 .31-.088.548-.26.71-.164.154-.4.231-.702.231-.303 0-.538-.077-.703-.232-.168-.161-.259-.396-.259-.709 0-.313.088-.551.26-.713.16-.154.396-.235.702-.235zm1.94 1.886c.302 0 .537.077.702.232.171.161.259.4.259.712 0 .31-.088.548-.26.71-.164.154-.4.232-.702.232-.302 0-.538-.078-.702-.232-.168-.162-.256-.397-.256-.71 0-.309.088-.55.256-.712.164-.155.4-.232.702-.232zm1.942-1.886c.303 0 .538.077.703.235.171.162.258.4.258.713 0 .31-.087.548-.258.71-.165.154-.4.231-.703.231-.306 0-.538-.077-.702-.232-.172-.161-.256-.396-.256-.709 0-.313.088-.551.256-.713.164-.154.4-.235.702-.235zm-9.997 1.355c.105-.101.121-.333.121-.464 0-.128-.016-.363-.12-.464-.078-.074-.246-.114-.471-.114-.064 0-.077.006-.101.006h-.037c-.013 0-.027 0-.023-.003-.044.003-.085.007-.125.007a.53.53 0 01-.286-.07c-.127-.081-.215-.223-.262-.418-.02-.077-.02-.144-.02-.211 0-.014-.003-.027-.003-.037.003-.014.003-.024.003-.034.003-.034.01-.07.01-.09 0-.132-.017-.367-.12-.468-.078-.074-.246-.114-.471-.114-.222 0-.387.04-.464.114-.108.101-.121.336-.121.467 0 .078.01.138.02.202 0 .003 0 .007.003.01.004.024-.003.04 0 .064.014.165-.013.306-.09.413-.095.128-.25.205-.458.236-.01.003-.02.003-.033.003-.027 0-.05-.003-.08-.003h-.004c-.034 0-.068.003-.098.003-.023 0-.043-.003-.067-.007h-.003c-.037-.003-.071-.013-.115-.013-.222 0-.386.04-.464.118-.104.1-.12.332-.12.463 0 .222.043.39.117.464.077.07.245.115.467.115.111 0 .111 0 .192-.014h.003c.017 0 .07-.007.088-.007h.003c.034-.003.07-.003.104-.003.108 0 .205.02.283.07.127.081.215.22.262.414.017.064.013.114.017.168 0 .02.003.037.003.054-.007.037-.01.07-.013.104-.007.04-.017.088-.017.121 0 .222.043.393.117.464.078.07.246.11.464.11.222 0 .393-.04.47-.113.105-.101.122-.333.122-.464 0-.034-.017-.084-.02-.128a4.084 4.084 0 01-.01-.074c-.004-.03-.004-.06-.004-.094 0-.04-.01-.077-.007-.121.02-.198.091-.353.209-.447a.6.6 0 01.39-.118h.054l.053.004h.004c.04.01.064.01.094.01h.087c.219.003.39-.04.467-.111zm-.332-2.01c.43.02.77.151 1.015.383.282.269.423.659.423 1.163 0 .507-.14.897-.427 1.166-.238.226-.568.353-1.008.377 0 .507-.144.897-.427 1.166-.269.252-.659.383-1.153.383s-.877-.127-1.15-.383c-.265-.255-.41-.628-.42-1.102-.463-.014-.83-.142-1.089-.387-.279-.265-.423-.655-.423-1.163 0-.504.144-.897.423-1.163.26-.245.626-.376 1.09-.39.01-.474.15-.844.42-1.099.272-.259.655-.39 1.15-.39.493 0 .883.131 1.152.39.262.245.407.598.424 1.049zm14.05 8.625c.124-.41.293-1.304.3-1.694.036-2.82-1.402-6.138-2.179-7.92-.114-.265-.218-.497-.299-.695l-.037-.094c-.05-.125-.097-.232-.134-.32a.792.792 0 00-.044-.09l-.01-.02-.027-.054-.05-.091a2.67 2.67 0 00-.461-.615c-.625-.599-1.553-.898-2.753-.898-.467 0-.918.057-1.378.178-.145.04-.551.205-.763.3-.114.063-.43.241-.545.319a3.859 3.859 0 01-4.299 0 13.642 13.642 0 00-.548-.323 8.385 8.385 0 00-.763-.3 5.304 5.304 0 00-1.375-.177c-1.203 0-2.127.302-2.753.897-.168.158-.319.367-.48.652l-.037.071-.004.003-.026.057c-.01.02-.02.044-.044.091-.044.098-.094.219-.151.353l-.024.057c-.084.202-.185.434-.3.7-.772 1.781-2.214 5.099-2.177 7.922.003.39.171 1.284.296 1.694.178.575.574.999 1.095 1.17.199.064.528.128.784.145.272 0 .85-.132 1.119-.253.235-.104.457-.248.686-.443.127-.111.184-.178.46-.518l.114-.138c.074-.094.148-.188.219-.282.185-.242.397-.518.662-.77.807-.766 1.832-1.328 3.052-1.67a8.667 8.667 0 012.336-.32c.794 0 1.58.108 2.336.32 1.224.342 2.25.904 3.053 1.67.265.252.473.528.662.773.07.094.144.189.218.28l.111.137c.276.34.333.407.464.518.29.245.538.373.703.443.279.125.924.253 1.183.253.13 0 .423-.05.706-.145.524-.175.924-.602 1.102-1.173zM21.106 6.787c.672 1.613 2.598 5.556 2.551 9.001-.007.498-.195 1.486-.343 1.96-.292.951-.975 1.563-1.724 1.808-.306.101-.72.195-1.019.195-.4 0-1.186-.158-1.59-.34a3.935 3.935 0 01-.94-.594c-.226-.195-.327-.323-.696-.783-.263-.323-.495-.676-.797-.965-.696-.666-1.583-1.14-2.635-1.432a7.821 7.821 0 00-2.068-.282c-.699 0-1.395.094-2.067.282-1.052.296-1.936.766-2.635 1.432-.303.289-.535.639-.8.965-.373.457-.47.588-.696.783-.376.32-.696.49-.924.595-.373.168-1.093.34-1.516.34h-.094a5.08 5.08 0 01-1.019-.196C1.348 19.311.666 18.7.37 17.748c-.145-.474-.333-1.466-.34-1.96-.047-3.442 1.88-7.385 2.552-9.001.07-.172.13-.32.181-.434.047-.108.067-.141.08-.168l.071-.135c.182-.322.39-.621.66-.874.813-.776 1.972-1.17 3.438-1.17a6.32 6.32 0 011.633.216c.293.077.942.363.955.37 0 0 .497.279.652.386a2.85 2.85 0 003.18 0c.158-.107.655-.386.655-.386.01-.007.66-.293.952-.37a6.32 6.32 0 011.633-.215c1.466 0 2.622.393 3.439 1.17.262.252.474.55.655.873l.068.135c.013.027.033.06.08.168.06.114.121.265.192.434z" fill="#5CB615" fill-rule="nonzero"/></svg>
